src/Widgets/LinkContainerWidget/thumbnail.svg

<svg xmlns="http://www.w3.org/2000/svg" fill="none" viewBox="0 0 150 100"><g clip-path="url(#a)"><path stroke="#AAA" stroke-linecap="round" stroke-linejoin="bevel" stroke-width="5.63" d="M55.82 44.56h34.79"/><path fill="#AAA" d="M54.78 34.82v-8.64h1.63v7.12h3.72v1.52zm6.49-7.38V26h1.63v1.44zm0 7.38v-6.48h1.63v6.48zm3.42 0v-6.48h1.45v2.15h.2v4.33h-1.66zm4.43 0v-3.06c0-.15 0-.34-.02-.57q-.03-.345-.15-.69c-.08-.23-.22-.43-.41-.58-.19-.16-.46-.23-.81-.23-.14 0-.29.02-.45.07s-.31.13-.45.25-.25.31-.34.56-.13.57-.13.97l-.94-.44c0-.51.1-.99.31-1.44s.52-.81.94-1.09.95-.41 1.58-.41c.51 0 .92.09 1.24.26s.57.39.75.65.3.54.38.83.12.55.14.78c.02.24.02.41.02.52v3.64h-1.66zm3.2 0v-8.64h1.67v5.28l2.2-3.12h2.02l-2.34 3.24 2.5 3.24h-2.12l-2.24-3.12v3.12h-1.67zm6.76 0V26h1.63v8.82zm3.55-7.38V26h1.63v1.44zm0 7.38v-6.48h1.63v6.48zm5.96.18c-.82 0-1.48-.18-1.98-.55s-.81-.89-.91-1.57l1.67-.25c.07.3.22.54.45.71s.53.26.89.26c.3 0 .52-.06.68-.17q.24-.165.24-.48c0-.13-.03-.23-.1-.31-.06-.08-.21-.16-.43-.23-.22-.08-.57-.18-1.03-.3-.53-.14-.95-.29-1.27-.46s-.54-.37-.68-.6-.21-.52-.21-.85c0-.42.11-.78.32-1.08s.51-.54.9-.71.84-.25 1.37-.25.96.08 1.35.23.71.38.95.67q.36.435.45 1.02l-1.67.3a.82.82 0 0 0-.31-.57c-.18-.14-.42-.22-.73-.25q-.45-.03-.72.12c-.18.1-.27.24-.27.43 0 .11.04.21.12.28.08.08.24.15.49.23s.62.18 1.12.31c.49.13.89.28 1.18.45.3.17.52.37.65.61.14.24.2.53.2.86 0 .66-.24 1.19-.72 1.57s-1.14.57-1.99.57zm3.31-5.4v-1.26h4.61v1.26zm4.61 5.22c-.45.08-.89.12-1.32.11s-.81-.09-1.15-.23-.59-.37-.77-.69c-.16-.3-.24-.6-.25-.9 0-.31-.01-.65-.01-1.04v-5.53h1.63v6.12c0 .2.05.36.12.48.14.23.37.35.69.37s.67 0 1.05-.05v1.36z"/><path stroke="#AAA" stroke-linecap="round" stroke-linejoin="bevel" stroke-width="3.75" d="M60.82 53.6h26.13"/><path stroke="#AAA" stroke-linecap="round" stroke-linejoin="round" stroke-width="2" d="m54.35 55.57 1.59-1.59c.19-.19.19-.5 0-.68l-1.68-1.68"/><path stroke="#AAA" stroke-linecap="round" stroke-linejoin="bevel" stroke-width="3.75" d="M60.82 62.67h26.13"/><path stroke="#AAA" stroke-linecap="round" stroke-linejoin="round" stroke-width="2" d="m54.35 64.64 1.59-1.59c.19-.19.19-.5 0-.68l-1.68-1.68"/><path stroke="#AAA" stroke-linecap="round" stroke-linejoin="bevel" stroke-width="3.75" d="M60.82 71.73h26.13"/><path stroke="#AAA" stroke-linecap="round" stroke-linejoin="round" stroke-width="2" d="m54.35 73.71 1.59-1.59c.19-.19.19-.5 0-.68l-1.68-1.68"/></g><defs><clipPath id="a"><path fill="#fff" d="M53 26h43.51v48.71H53z"/></clipPath></defs></svg>

<svg viewBox="0 0 150 100" fill="none" xmlns="http://www.w3.org/2000/svg">
<g id="linklist">
<g id="Ebene_1" clip-path="url(#clip0_6_512)">
<path id="Vector" d="M55.82 44.56H90.61" stroke="#AAAAAA" stroke-width="5.63" stroke-linecap="round" stroke-linejoin="bevel"/>
<path id="Vector_2" d="M54.78 34.82V26.18H56.41V33.3H60.13V34.82H54.78Z" fill="#AAAAAA"/>
<path id="Vector_3" d="M61.27 27.44V26H62.9V27.44H61.27ZM61.27 34.82V28.34H62.9V34.82H61.27Z" fill="#AAAAAA"/>
<path id="Vector_4" d="M64.69 34.82V28.34H66.14V30.49H66.34V34.82H64.68H64.69ZM69.12 34.82V31.76C69.12 31.61 69.12 31.42 69.1 31.19C69.08 30.96 69.03 30.73 68.95 30.5C68.87 30.27 68.73 30.07 68.54 29.92C68.35 29.76 68.08 29.69 67.73 29.69C67.59 29.69 67.44 29.71 67.28 29.76C67.12 29.81 66.97 29.89 66.83 30.01C66.69 30.13 66.58 30.32 66.49 30.57C66.4 30.82 66.36 31.14 66.36 31.54L65.42 31.1C65.42 30.59 65.52 30.11 65.73 29.66C65.94 29.21 66.25 28.85 66.67 28.57C67.09 28.29 67.62 28.16 68.25 28.16C68.76 28.16 69.17 28.25 69.49 28.42C69.81 28.59 70.06 28.81 70.24 29.07C70.42 29.33 70.54 29.61 70.62 29.9C70.7 30.19 70.74 30.45 70.76 30.68C70.78 30.92 70.78 31.09 70.78 31.2V34.84H69.12V34.82Z" fill="#AAAAAA"/>
<path id="Vector_5" d="M72.32 34.82V26.18H73.99V31.46L76.19 28.34H78.21L75.87 31.58L78.37 34.82H76.25L74.01 31.7V34.82H72.34H72.32Z" fill="#AAAAAA"/>
<path id="Vector_6" d="M79.08 34.82V26H80.71V34.82H79.08Z" fill="#AAAAAA"/>
<path id="Vector_7" d="M82.63 27.44V26H84.26V27.44H82.63ZM82.63 34.82V28.34H84.26V34.82H82.63Z" fill="#AAAAAA"/>
<path id="Vector_8" d="M88.59 35C87.77 35 87.11 34.82 86.61 34.45C86.11 34.08 85.8 33.56 85.7 32.88L87.37 32.63C87.44 32.93 87.59 33.17 87.82 33.34C88.05 33.51 88.35 33.6 88.71 33.6C89.01 33.6 89.23 33.54 89.39 33.43C89.55 33.32 89.63 33.16 89.63 32.95C89.63 32.82 89.6 32.72 89.53 32.64C89.47 32.56 89.32 32.48 89.1 32.41C88.88 32.33 88.53 32.23 88.07 32.11C87.54 31.97 87.12 31.82 86.8 31.65C86.48 31.48 86.26 31.28 86.12 31.05C85.98 30.82 85.91 30.53 85.91 30.2C85.91 29.78 86.02 29.42 86.23 29.12C86.44 28.82 86.74 28.58 87.13 28.41C87.52 28.24 87.97 28.16 88.5 28.16C89.03 28.16 89.46 28.24 89.85 28.39C90.24 28.54 90.56 28.77 90.8 29.06C91.04 29.35 91.19 29.69 91.25 30.08L89.58 30.38C89.55 30.14 89.45 29.95 89.27 29.81C89.09 29.67 88.85 29.59 88.54 29.56C88.24 29.54 88 29.58 87.82 29.68C87.64 29.78 87.55 29.92 87.55 30.11C87.55 30.22 87.59 30.32 87.67 30.39C87.75 30.47 87.91 30.54 88.16 30.62C88.41 30.7 88.78 30.8 89.28 30.93C89.77 31.06 90.17 31.21 90.46 31.38C90.76 31.55 90.98 31.75 91.11 31.99C91.25 32.23 91.31 32.52 91.31 32.85C91.31 33.51 91.07 34.04 90.59 34.42C90.11 34.8 89.45 34.99 88.6 34.99L88.59 35Z" fill="#AAAAAA"/>
<path id="Vector_9" d="M91.9 29.6V28.34H96.51V29.6H91.9ZM96.51 34.82C96.06 34.9 95.62 34.94 95.19 34.93C94.76 34.92 94.38 34.84 94.04 34.7C93.7 34.56 93.45 34.33 93.27 34.01C93.11 33.71 93.03 33.41 93.02 33.11C93.02 32.8 93.01 32.46 93.01 32.07V26.54H94.64V31.98C94.64 32.23 94.64 32.46 94.64 32.66C94.64 32.86 94.69 33.02 94.76 33.14C94.9 33.37 95.13 33.49 95.45 33.51C95.77 33.53 96.12 33.51 96.5 33.46V34.82H96.51Z" fill="#AAAAAA"/>
<path id="Vector_10" d="M60.82 53.6H86.95" stroke="#AAAAAA" stroke-width="3.75" stroke-linecap="round" stroke-linejoin="bevel"/>
<path id="Vector_11" d="M54.35 55.57L55.94 53.98C56.13 53.79 56.13 53.48 55.94 53.3L54.26 51.62" stroke="#AAAAAA" stroke-width="2" stroke-linecap="round" stroke-linejoin="round"/>
<path id="Vector_12" d="M60.82 62.67H86.95" stroke="#AAAAAA" stroke-width="3.75" stroke-linecap="round" stroke-linejoin="bevel"/>
<path id="Vector_13" d="M54.35 64.64L55.94 63.05C56.13 62.86 56.13 62.55 55.94 62.37L54.26 60.69" stroke="#AAAAAA" stroke-width="2" stroke-linecap="round" stroke-linejoin="round"/>
<path id="Vector_14" d="M60.82 71.73H86.95" stroke="#AAAAAA" stroke-width="3.75" stroke-linecap="round" stroke-linejoin="bevel"/>
<path id="Vector_15" d="M54.35 73.71L55.94 72.12C56.13 71.93 56.13 71.62 55.94 71.44L54.26 69.76" stroke="#AAAAAA" stroke-width="2" stroke-linecap="round" stroke-linejoin="round"/>
</g>
</g>
<defs>
<clipPath id="clip0_6_512">
<rect width="43.51" height="48.71" fill="white" transform="translate(53 26)"/>
</clipPath>
</defs>
</svg>
